symbols/web/medical_services/materialsymbolsrounded/medical_services_wght600grad200fill1_20px.svg

<svg xmlns="http://www.w3.org/2000/svg" height="20" width="20"><path d="M8.688 12.979v1.188q0 .521.395.916.396.396.917.396t.917-.396q.395-.395.395-.916v-1.188H12.5q.521 0 .917-.396.395-.395.395-.916t-.395-.917q-.396-.396-.917-.396h-1.188V9.167q0-.521-.395-.917-.396-.396-.917-.396t-.917.396q-.395.396-.395.917v1.187H7.5q-.521 0-.917.396-.395.396-.395.917t.395.916q.396.396.917.396Zm-5.209 6.354q-1.104 0-1.875-.771-.771-.77-.771-1.874V7.083q0-1.104.771-1.875.771-.77 1.875-.77h2.375v-1.48q0-1.104.771-1.875Q7.396.312 8.5.312h3q1.104 0 1.875.771.771.771.771 1.875v1.48h2.375q1.104 0 1.875.77.771.771.771 1.875v9.605q0 1.104-.771 1.874-.771.771-1.875.771ZM8.5 4.438h3v-1.48h-3Z"/></svg>

<svg xmlns="http://www.w3.org/2000/svg" height="20" width="20"><path d="M8.688 12.979V14.167Q8.688 14.688 9.083 15.083Q9.479 15.479 10 15.479Q10.521 15.479 10.917 15.083Q11.312 14.688 11.312 14.167V12.979H12.5Q13.021 12.979 13.417 12.583Q13.812 12.188 13.812 11.667Q13.812 11.146 13.417 10.75Q13.021 10.354 12.5 10.354H11.312V9.167Q11.312 8.646 10.917 8.25Q10.521 7.854 10 7.854Q9.479 7.854 9.083 8.25Q8.688 8.646 8.688 9.167V10.354H7.5Q6.979 10.354 6.583 10.75Q6.188 11.146 6.188 11.667Q6.188 12.188 6.583 12.583Q6.979 12.979 7.5 12.979ZM3.479 19.333Q2.375 19.333 1.604 18.562Q0.833 17.792 0.833 16.688V7.083Q0.833 5.979 1.604 5.208Q2.375 4.438 3.479 4.438H5.854V2.958Q5.854 1.854 6.625 1.083Q7.396 0.312 8.5 0.312H11.5Q12.604 0.312 13.375 1.083Q14.146 1.854 14.146 2.958V4.438H16.521Q17.625 4.438 18.396 5.208Q19.167 5.979 19.167 7.083V16.688Q19.167 17.792 18.396 18.562Q17.625 19.333 16.521 19.333ZM8.5 4.438H11.5V2.958Q11.5 2.958 11.5 2.958Q11.5 2.958 11.5 2.958H8.5Q8.5 2.958 8.5 2.958Q8.5 2.958 8.5 2.958Z"/></svg>
